X:1
T:Title
%%score { ( 1 3 ) | ( 2 4 ) }
L:1/8
M:3/4
K:Ab
V:1 treble nm="Grand Piano"
V:3 treble 
V:2 bass 
V:4 bass 
V:1
 z2 z2[Q:1/4=100] [CE]2 | [CA]3 [CE] FG | [CA]4 [CE]2 | [DF]3 [FA] [EG][DF] | [CE]4 E2 | B3 A Bc | %6
 A4 [Ec]2 | [EB]3 [EG] [FA][=DF] |[M:2/4] E4 |[M:1/4] E2 |[M:3/4] c4 B2 | [A,CA]4 E2 | B4 [CA]2 | %13
 [B,EG]4 [G,E]2 | [A,EA]3 [Ec] [EB][EA] | [DF]2 [FA]2 [Fd]2 | c3 B AG |[M:2/4] [CA]4 |] %18
V:2
 z2 z2 [A,,A,]2 | [A,,E,]3 [A,,A,] [D,A,D][E,D] | [A,,E,]4 [A,,A,]2 | [D,A,]3 [D,A,] [D,A,][D,A,] | %4
 [A,,A,]4 [E,G,]2 | [E,G,D]3 [E,A,C] [E,G,D][E,G,E] | [A,C]4 [A,,A,]2 | %7
 [B,,G,]3 [B,,B,] [B,,B,][B,,A,] |[M:2/4] [E,G,]4 |[M:1/4] z2 |[M:3/4] E4 D2 | A,,4 C2 | D4 z2 | %13
 E,4 E,D, | C,3 [A,,A,] [B,,G,][C,A,] | [D,A,]2 [D,A,]2 [D,A,]2 | [E,A,E]3 [E,G,D] [E,A,C][E,D] | %17
[M:2/4] [A,,E,]4 |] %18
V:3
 x6 | x6 | x6 | x6 | x6 | x6 | x6 | x6 |[M:2/4] x4 |[M:1/4] x2 |[M:3/4] z2 z G, z G, | x6 | %12
 z2 z G, A,A, | x6 | x6 | x6 | x6 |[M:2/4] x4 |] %18
V:4
 x6 | x6 | x6 | x6 | x6 | x6 | x6 | x6 |[M:2/4] x4 |[M:1/4] x2 |[M:3/4] z2 z E, [E,G,]E, | x6 | %12
 z2 z E, E,E, | x6 | x6 | x6 | x6 |[M:2/4] x4 |] %18

